X: 2
T: The Green Fields Of Rossbeigh
R: reel
M: 4/4
L: 1/8
K: Edor
dc |: BE ~E2 BAFA | FABd fdec | BE ~E2 BAFA | BFAF E2 FA :||: Bdef gfge | dB ~B2 dBA=c | Bdef gfeB | dBAF E2 ef |gfgb agfe| ~f2 fe fedB | ABde fgfe |1 dBAF E2 FA :|2 dBAF E4 |


Tune 322	Setting 13095

